SVG_Azure_Grouped/Deployment/ARM Template.svg

<?xml version="1.0" encoding="UTF-8" standalone="no"?>
<!-- Generated by Microsoft Visio, SVG Export ARM Template.svg Page-1 -->

<svg
   xmlns:dc="http://purl.org/dc/elements/1.1/"
   xmlns:cc="http://creativecommons.org/ns#"
   xmlns:rdf="http://www.w3.org/1999/02/22-rdf-syntax-ns#"
   xmlns:svg="http://www.w3.org/2000/svg"
   xmlns="http://www.w3.org/2000/svg"
   xmlns:sodipodi="http://sodipodi.sourceforge.net/DTD/sodipodi-0.dtd"
   xmlns:inkscape="http://www.inkscape.org/namespaces/inkscape"
   width="0.70860934in"
   height="0.78735912in"
   viewBox="0 0 51.019815 56.689997"
   xml:space="preserve"
   class="st3"
   version="1.1"
   id="svg29"
   sodipodi:docname="ARM Template.svg"
   style="font-size:12px;overflow:visible;color-interpolation-filters:sRGB;fill:none;fill-rule:evenodd;stroke-linecap:square;stroke-miterlimit:3"
   inkscape:version="0.92.5 (2060ec1f9f, 2020-04-08)"><metadata
   id="metadata35"><rdf:RDF><cc:Work
       rdf:about=""><dc:format>image/svg+xml</dc:format><dc:type
         rdf:resource="http://purl.org/dc/dcmitype/StillImage" /></cc:Work></rdf:RDF></metadata><defs
   id="defs33" /><sodipodi:namedview
   pagecolor="#ffffff"
   bordercolor="#666666"
   borderopacity="1"
   objecttolerance="10"
   gridtolerance="10"
   guidetolerance="10"
   inkscape:pageopacity="0"
   inkscape:pageshadow="2"
   inkscape:window-width="640"
   inkscape:window-height="480"
   id="namedview31"
   showgrid="false"
   inkscape:zoom="1.8365233"
   inkscape:cx="34.015635"
   inkscape:cy="18.900351"
   inkscape:window-x="0"
   inkscape:window-y="0"
   inkscape:window-maximized="0"
   inkscape:current-layer="svg29" />
	<style
   type="text/css"
   id="style2">
	<![CDATA[
		.st1 {fill:#59b4d9;stroke:none;stroke-linecap:butt;stroke-width:0.905763}
		.st2 {fill:#ffffff;fill-opacity:0.8;stroke:none;stroke-linecap:butt;stroke-width:0.905763}
		.st3 {fill:none;fill-rule:evenodd;font-size:12px;overflow:visible;stroke-linecap:square;stroke-miterlimit:3}
	]]>
	</style>

	<g
   id="g27"
   transform="translate(-5.1024712,-5.6743)">
		<title
   id="title4">Page-1</title>
		<g
   id="group17481-1"
   transform="translate(5.10236,-34.0157)">
			<title
   id="title6">ARM Template.17481</title>
			<g
   id="group17482-2">
				<title
   id="title8">g10</title>
				<g
   id="shape17483-3">
					<title
   id="title10">path4</title>
					<path
   d="M 48.7,47.4 43.14,41.95 40.82,39.69 H 0 V 96.38 H 51.02 V 49.66 Z"
   class="st1"
   id="path12"
   inkscape:connector-curvature="0"
   style="fill:#59b4d9;stroke:none;stroke-width:0.90576297;stroke-linecap:butt" />
				</g>
				<g
   id="shape17484-5"
   transform="translate(2.31926,-2.26772)">
					<title
   id="title15">path6</title>
					<path
   d="M 38.27,44.22 H 0 V 96.38 H 46.39 V 52.16 h -8.12 z"
   class="st2"
   id="path17"
   inkscape:connector-curvature="0"
   style="fill:#ffffff;fill-opacity:0.8;stroke:none;stroke-width:0.90576297;stroke-linecap:butt" />
				</g>
				<g
   id="shape17485-7"
   transform="translate(7.28826,-22.5706)">
					<title
   id="title20">path8</title>
					<path
   d="m 4.59,92.5 c 0,1.23 -0.31,2.18 -0.93,2.86 C 3.04,96.04 2.22,96.38 1.19,96.38 0.7,96.38 0.31,96.32 0,96.21 V 94.6 c 0.28,0.18 0.64,0.28 1.08,0.28 1.17,0 1.76,-0.89 1.76,-2.65 v -6.36 h 1.75 z m 2.03,3.29 v -1.76 c 0.16,0.14 0.35,0.27 0.58,0.39 0.22,0.11 0.46,0.21 0.71,0.29 0.25,0.08 0.5,0.14 0.75,0.18 0.25,0.05 0.48,0.07 0.69,0.07 0.74,0 1.29,-0.12 1.65,-0.36 0.36,-0.24 0.54,-0.59 0.54,-1.05 0,-0.24 -0.06,-0.45 -0.18,-0.63 a 1.89831,1.85613 -180 0 0 -0.51,-0.5 5.3053,5.1874 -180 0 0 -0.76,-0.43 C 9.8,91.86 9.48,91.71 9.15,91.56 8.79,91.38 8.46,91.19 8.15,90.99 A 4.26395,4.1692 0 0 1 7.34,90.36 2.73788,2.67704 0 0 1 6.8,89.57 2.63931,2.58066 0 0 1 6.61,88.54 c 0,-0.49 0.11,-0.91 0.33,-1.27 0.23,-0.35 0.52,-0.65 0.89,-0.88 a 4.03782,3.94809 0 0 1 1.25,-0.52 5.95585,5.8235 0 0 1 1.43,-0.17 c 1.1,0 1.91,0.12 2.41,0.37 v 1.69 c -0.6,-0.42 -1.37,-0.63 -2.31,-0.63 -0.26,0 -0.52,0.02 -0.78,0.07 a 2.31346,2.26205 -180 0 0 -0.69,0.24 1.50984,1.47628 -180 0 0 -0.5,0.42 1.06686,1.04315 -180 0 0 -0.19,0.63 c 0,0.23 0.05,0.43 0.15,0.6 0.09,0.16 0.24,0.32 0.43,0.46 0.19,0.14 0.42,0.27 0.69,0.4 0.27,0.14 0.59,0.28 0.95,0.43 0.37,0.19 0.71,0.39 1.04,0.59 0.33,0.21 0.61,0.44 0.86,0.69 0.25,0.25 0.45,0.52 0.59,0.83 0.15,0.3 0.22,0.65 0.22,1.04 0,0.52 -0.11,0.97 -0.32,1.33 -0.22,0.36 -0.51,0.65 -0.88,0.88 -0.36,0.22 -0.79,0.38 -1.26,0.49 A 6.57277,6.42671 0 0 1 8.75,96.34 9.15758,8.95408 0 0 1 7.96,96.22 C 7.69,96.17 7.44,96.11 7.2,96.04 6.95,95.97 6.76,95.89 6.62,95.79 Z m 13.06,0.59 c -1.53,0 -2.75,-0.49 -3.66,-1.45 -0.92,-0.97 -1.38,-2.22 -1.38,-3.77 0,-1.66 0.47,-2.99 1.4,-3.98 0.94,-0.99 2.2,-1.48 3.8,-1.48 1.49,0 2.68,0.48 3.59,1.44 0.91,0.96 1.36,2.22 1.36,3.77 0,1.69 -0.46,3.02 -1.39,4 -0.93,0.98 -2.17,1.47 -3.72,1.47 z m 0.07,-9.17 c -0.96,0 -1.75,0.35 -2.36,1.05 -0.6,0.71 -0.91,1.64 -0.91,2.79 0,1.15 0.3,2.07 0.89,2.78 0.59,0.7 1.36,1.05 2.31,1.05 1.01,0 1.81,-0.34 2.4,-1 0.58,-0.67 0.87,-1.61 0.87,-2.81 0,-1.23 -0.28,-2.18 -0.85,-2.86 -0.57,-0.67 -1.35,-1 -2.35,-1 z m 15.94,8.99 h -1.92 l -5.05,-7.59 a 3.44641,3.36983 0 0 1 -0.31,-0.6 h -0.05 c 0.04,0.22 0.06,0.7 0.06,1.42 V 96.2 H 26.73 V 85.87 h 2.04 l 4.88,7.42 c 0.2,0.3 0.34,0.52 0.4,0.63 h 0.03 C 34.03,93.65 34,93.18 34,92.53 v -6.66 h 1.69 z"
   class="st1"
   id="path22"
   inkscape:connector-curvature="0"
   style="fill:#59b4d9;stroke:none;stroke-width:0.90576297;stroke-linecap:butt" />
				</g>
			</g>
		</g>
	</g>
</svg>

<?xml version="1.0" encoding="UTF-8" standalone="no"?>
<!DOCTYPE svg PUBLIC "-//W3C//DTD SVG 1.1//EN" "http://www.w3.org/Graphics/SVG/1.1/DTD/svg11.dtd">
<!-- Generated by Microsoft Visio, SVG Export ARM Template.svg Page-1 -->
<svg xmlns="http://www.w3.org/2000/svg" xmlns:xlink="http://www.w3.org/1999/xlink" xmlns:ev="http://www.w3.org/2001/xml-events"
		width="0.850394in" height="1.33858in" viewBox="0 0 61.2283 96.378" xml:space="preserve" color-interpolation-filters="sRGB"
		class="st3">
	<style type="text/css">
	<![CDATA[
		.st1 {fill:#59b4d9;stroke:none;stroke-linecap:butt;stroke-width:0.905763}
		.st2 {fill:#ffffff;fill-opacity:0.8;stroke:none;stroke-linecap:butt;stroke-width:0.905763}
		.st3 {fill:none;fill-rule:evenodd;font-size:12px;overflow:visible;stroke-linecap:square;stroke-miterlimit:3}
	]]>
	</style>

	<g>
		<title>Page-1</title>
		<g id="group17084-1" transform="translate(5.10236,-34.0157)">
			<title>ARM Template.17084</title>
			<g id="group17085-2">
				<title>g10</title>
				<g id="shape17086-3">
					<title>path4</title>
					<path d="M48.7 47.4 L43.14 41.95 L40.82 39.69 L0 39.69 L0 96.38 L51.02 96.38 L51.02 49.66 L48.7 47.4 Z"
							class="st1"/>
				</g>
				<g id="shape17087-5" transform="translate(2.31926,-2.26772)">
					<title>path6</title>
					<path d="M38.27 44.22 L0 44.22 L0 96.38 L46.39 96.38 L46.39 52.16 L38.27 52.16 L38.27 44.22 Z" class="st2"/>
				</g>
				<g id="shape17088-7" transform="translate(7.28826,-22.5706)">
					<title>path8</title>
					<path d="M4.59 92.5 C4.59 93.73 4.28 94.68 3.66 95.36 C3.04 96.04 2.22 96.38 1.19 96.38 C0.7 96.38 0.31 96.32
								 0 96.21 L0 94.6 C0.28 94.78 0.64 94.88 1.08 94.88 C2.25 94.88 2.84 93.99 2.84 92.23 L2.84 85.87
								 L4.59 85.87 L4.59 92.5 L4.59 92.5 ZM6.62 95.79 L6.62 94.03 C6.78 94.17 6.97 94.3 7.2 94.42 C7.42
								 94.53 7.66 94.63 7.91 94.71 C8.16 94.79 8.41 94.85 8.66 94.89 C8.91 94.94 9.14 94.96 9.35 94.96
								 C10.09 94.96 10.64 94.84 11 94.6 C11.36 94.36 11.54 94.01 11.54 93.55 C11.54 93.31 11.48 93.1 11.36
								 92.92 A1.89831 1.85613 -180 0 0 10.85 92.42 A5.3053 5.1874 -180 0 0 10.09 91.99 C9.8 91.86 9.48
								 91.71 9.15 91.56 C8.79 91.38 8.46 91.19 8.15 90.99 A4.26395 4.1692 0 0 1 7.34 90.36 A2.73788 2.67704
								 0 0 1 6.8 89.57 A2.63931 2.58066 0 0 1 6.61 88.54 C6.61 88.05 6.72 87.63 6.94 87.27 C7.17 86.92
								 7.46 86.62 7.83 86.39 A4.03782 3.94809 0 0 1 9.08 85.87 A5.95585 5.8235 0 0 1 10.51 85.7 C11.61
								 85.7 12.42 85.82 12.92 86.07 L12.92 87.76 C12.32 87.34 11.55 87.13 10.61 87.13 C10.35 87.13 10.09
								 87.15 9.83 87.2 A2.31346 2.26205 -180 0 0 9.14 87.44 A1.50984 1.47628 -180 0 0 8.64 87.86 A1.06686
								 1.04315 -180 0 0 8.45 88.49 C8.45 88.72 8.5 88.92 8.6 89.09 C8.69 89.25 8.84 89.41 9.03 89.55 C9.22
								 89.69 9.45 89.82 9.72 89.95 C9.99 90.09 10.31 90.23 10.67 90.38 C11.04 90.57 11.38 90.77 11.71 90.97
								 C12.04 91.18 12.32 91.41 12.57 91.66 C12.82 91.91 13.02 92.18 13.16 92.49 C13.31 92.79 13.38 93.14
								 13.38 93.53 C13.38 94.05 13.27 94.5 13.06 94.86 C12.84 95.22 12.55 95.51 12.18 95.74 C11.82 95.96
								 11.39 96.12 10.92 96.23 A6.57277 6.42671 0 0 1 8.75 96.34 A9.15758 8.95408 0 0 1 7.96 96.22 C7.69
								 96.17 7.44 96.11 7.2 96.04 C6.95 95.97 6.76 95.89 6.62 95.79 ZM19.68 96.38 C18.15 96.38 16.93 95.89
								 16.02 94.93 C15.1 93.96 14.64 92.71 14.64 91.16 C14.64 89.5 15.11 88.17 16.04 87.18 C16.98 86.19
								 18.24 85.7 19.84 85.7 C21.33 85.7 22.52 86.18 23.43 87.14 C24.34 88.1 24.79 89.36 24.79 90.91 C24.79
								 92.6 24.33 93.93 23.4 94.91 C22.47 95.89 21.23 96.38 19.68 96.38 ZM19.75 87.21 C18.79 87.21 18 87.56
								 17.39 88.26 C16.79 88.97 16.48 89.9 16.48 91.05 C16.48 92.2 16.78 93.12 17.37 93.83 C17.96 94.53
								 18.73 94.88 19.68 94.88 C20.69 94.88 21.49 94.54 22.08 93.88 C22.66 93.21 22.95 92.27 22.95 91.07
								 C22.95 89.84 22.67 88.89 22.1 88.21 C21.53 87.54 20.75 87.21 19.75 87.21 ZM35.69 96.2 L33.77 96.2
								 L28.72 88.61 A3.44641 3.36983 0 0 1 28.41 88.01 L28.36 88.01 C28.4 88.23 28.42 88.71 28.42 89.43
								 L28.42 96.2 L26.73 96.2 L26.73 85.87 L28.77 85.87 L33.65 93.29 C33.85 93.59 33.99 93.81 34.05 93.92
								 L34.08 93.92 C34.03 93.65 34 93.18 34 92.53 L34 85.87 L35.69 85.87 L35.69 96.2 L35.69 96.2 Z"
							class="st1"/>
				</g>
			</g>
		</g>
	</g>
</svg>
